web/static/img/lp/nodejs-logo-gray.svg

<svg fill="none" height="40" viewBox="0 0 138 40" width="138" xmlns="http://www.w3.org/2000/svg"><g fill="#2f2f2f" fill-opacity=".5"><path d="m126.684 14.3582c-.335 0-.661.0692-.949.2325l-9.131 5.2727c-.591.3406-.95.9834-.95 1.6675v10.5264c0 .6835.359 1.3256.95 1.667l2.385 1.3765c1.158.5709 1.585.562 2.113.562 1.715 0 2.694-1.0408 2.694-2.8495v-10.3908c0-.1469-.127-.2519-.271-.2519h-1.144c-.146 0-.271.105-.271.2519v10.3908c0 .8016-.835 1.608-2.191.9304l-2.481-1.4539c-.088-.0477-.155-.132-.155-.2325v-10.5266c0-.0997.066-.2013.155-.252l9.111-5.253c.041-.0241.088-.0368.136-.0368.047 0 .094.0127.135.0368l9.112 5.2533c.086.0523.155.149.155.2522v10.5264c0 .1005-.051.2034-.136.2519l-9.131 5.2533c-.078.0467-.186.0467-.271 0l-2.346-1.3956c-.035-.0194-.075-.0295-.116-.0295s-.081.0101-.116.0295c-.648.367-.769.4095-1.377.6202-.149.0523-.376.1334.078.388l3.063 1.8025c.289.1666.616.2536.95.2522.333.0021.661-.0849.95-.2519l9.13-5.2537c.591-.3435.95-.9834.95-1.6669v-10.5267c0-.6838-.359-1.3256-.95-1.6669l-9.13-5.2728c-.287-.1635-.615-.2328-.95-.2328z"/><path d="m129.127 21.8796c-2.6 0-4.148 1.1066-4.148 2.9468 0 1.9959 1.537 2.5445 4.032 2.7913 2.986.2923 3.218.7307 3.218 1.3183 0 1.0193-.812 1.4539-2.733 1.4539-2.413 0-2.943-.6025-3.121-1.8028-.021-.1288-.12-.2328-.252-.2328h-1.183c-.145 0-.271.1256-.271.2716 0 1.5366.836 3.3536 4.827 3.3536 2.889 0 4.556-1.134 4.556-3.1211 0-1.9695-1.346-2.4984-4.149-2.8689-2.832-.3748-3.102-.5582-3.102-1.2213 0-.5475.229-1.2798 2.326-1.2798 1.874 0 2.567.4042 2.85 1.6675.025.1186.13.2131.252.2131h1.183c.073 0 .143-.0447.194-.097.049-.0557.084-.1185.077-.1937-.183-2.1754-1.634-3.1987-4.556-3.1987z"/><path d="m73.0059.555789c-.1021.000068-.2023.026718-.291.077327-.088.051534-.1612.125123-.2122.213518-.0509.088395-.078.188546-.0785.290586v14.82998c0 .1455-.0676.2759-.1937.3489-.0618.036-.1321.055-.2036.055s-.1417-.019-.2035-.055l-2.4233-1.3956c-.1767-.1023-.3773-.1562-.5815-.1562s-.4049.0539-.5816.1562l-9.6734 5.5828c-.3615.2088-.5814.61-.5814 1.0276v11.166c0 .4171.2201.7992.5814 1.008l9.6734 5.5831c.1767.1025.3773.1565.5816.1565.2042 0 .4049-.054.5815-.1565l9.6734-5.5831c.1771-.102.3241-.2488.4263-.4258.1021-.177.1557-.3778.1554-.5822v-27.8375c-.0003-.20913-.056-.41445-.1616-.59498-.1056-.18054-.2571-.32983-.4393-.43263l-5.7577-3.218073c-.0902-.050384-.1905-.059275-.2907-.057928zm-62.2276 13.938211c-.1843.0072-.3578.0396-.5232.1355l-9.673665 5.5831c-.177201.1018-.324321.2487-.426436.4257-.1021136.177-.15558691.3779-.15499412.5823l.01939902 14.9854c0 .2083.1075031.402.2907151.5038.087837.0528.188378.0807.29085.0807s.203014-.0279.29085-.0807l5.738061-3.2954c.36346-.2161.60083-.5916.60083-1.0082v-6.9982c0-.4176.21958-.8007.5817-1.0082l2.44239-1.415c.1766-.1027.3774-.1563.5817-.1552.1994 0 .4041.0498.5814.1552l2.4427 1.415c.1773.1017.3246.2486.4268.4257s.1556.3781.1549.5825v6.998c0 .4165.2398.7948.6008 1.0082l5.7381 3.2956c.0878.0528.1883.0807.2908.0807s.203-.0279.2909-.0807c.0884-.0511.1618-.1246.2129-.2131.051-.0885.078-.1888.078-.291l.0189-14.9851c.0012-.2045-.0521-.4056-.1543-.5827-.1021-.1771-.2495-.3239-.4271-.4253l-9.6734-5.5831c-.1635-.0959-.3376-.128-.5232-.1355zm86.9247.1355c-.2021 0-.4001.0512-.5815.1552l-9.6733 5.5831c-.1772.1019-.3242.2488-.4264.4258-.1021.177-.1557.3778-.1553.5821v11.166c0 .4201.2365.8005.6008 1.0083l9.596 5.4667c.3543.2021.787.2174 1.1438.0188l5.8159-3.2372c.184-.1023.309-.2936.31-.5038.001-.1023-.026-.2031-.077-.2917-.051-.0887-.125-.162-.214-.2124l-9.7314-5.5831c-.1822-.104-.3101-.3145-.3101-.5235v-3.4892c0-.2088.1293-.4001.3101-.5041l3.0241-1.7448c.0883-.0511.1887-.0781.2908-.0781s.2025.027.2909.0781l3.0236 1.7448c.089.0509.162.1243.213.2128.052.0885.078.1889.078.2911v2.7527c0 .1022.027.2026.078.2911s.124.1619.213.2128c.181.1048.401.1051.581 0l5.797-3.3725c.177-.1023.323-.2493.426-.4262.102-.177.155-.3777.156-.582v-2.6943c0-.4163-.221-.7991-.582-1.0082l-9.6153-5.5831c-.1768-.1023-.3775-.1557-.5817-.155zm-28.9234 8.3359c.0507 0 .11.0124.1552.0385l3.3151 1.9192c.09.052.1552.1482.1552.2519v3.8383c0 .1043-.0647.2002-.1552.2522l-3.3151 1.9191c-.0443.0253-.0944.0386-.1453.0386-.051 0-.1011-.0133-.1454-.0386l-3.3148-1.9191c-.0903-.0523-.1552-.1479-.1552-.2522v-3.8383c0-.104.0652-.1994.1552-.2519l3.3148-1.9189c.0408-.0254.0878-.0387.1358-.0385v-.0003z"/><path d="m39.837 14.5709c-.2016 0-.4009.0512-.5815.1552l-9.6733 5.5638c-.3619.2082-.5817.6102-.5817 1.0273v11.166c0 .4176.2201.7991.5817 1.0082l9.6733 5.5829c.1767.1026.3773.1566.5816.1566s.4049-.054.5816-.1566l9.6733-5.5829c.1771-.102.3241-.2489.4262-.426.1021-.177.1557-.3778.1553-.5822v-11.166c0-.4176-.2199-.8191-.5815-1.0273l-9.6733-5.5638c-.1768-.1021-.3775-.1556-.5817-.1552zm57.8464 9.9644c-.0385 0-.0814 0-.1161.0194l-1.861 1.0855c-.0347.0193-.0637.0474-.0842.0814-.0204.0341-.0315.0729-.0322.1126v2.1323c0 .0803.0464.1538.1164.194l1.861 1.0661c.0697.0404.1441.0404.2131 0l1.8609-1.0664c.0346-.0194.0635-.0475.0839-.0814.0204-.034.0316-.0727.0325-.1123v-2.1326c-.0009-.0396-.0121-.0783-.0325-.1123s-.0493-.062-.0839-.0814l-1.8609-1.0858c-.0345-.0202-.0582-.0189-.097-.0189z"/></g></svg>

<svg width="138" height="40" viewBox="0 0 138 40" fill="none" xmlns="http://www.w3.org/2000/svg">
<path d="M126.684 14.3582C126.349 14.3582 126.023 14.4274 125.735 14.5907L116.604 19.8634C116.013 20.204 115.654 20.8468 115.654 21.5309V32.0573C115.654 32.7408 116.013 33.3829 116.604 33.7243L118.989 35.1008C120.147 35.6717 120.574 35.6628 121.102 35.6628C122.817 35.6628 123.796 34.622 123.796 32.8133V22.4225C123.796 22.2756 123.669 22.1706 123.525 22.1706H122.381C122.235 22.1706 122.11 22.2756 122.11 22.4225V32.8133C122.11 33.6149 121.275 34.4213 119.919 33.7437L117.438 32.2898C117.35 32.2421 117.283 32.1578 117.283 32.0573V21.5307C117.283 21.431 117.349 21.3294 117.438 21.2787L126.549 16.0257C126.59 16.0016 126.637 15.9889 126.685 15.9889C126.732 15.9889 126.779 16.0016 126.82 16.0257L135.932 21.279C136.018 21.3313 136.087 21.428 136.087 21.5312V32.0576C136.087 32.1581 136.036 32.261 135.951 32.3095L126.82 37.5628C126.742 37.6095 126.634 37.6095 126.549 37.5628L124.203 36.1672C124.168 36.1478 124.128 36.1377 124.087 36.1377C124.046 36.1377 124.006 36.1478 123.971 36.1672C123.323 36.5342 123.202 36.5767 122.594 36.7874C122.445 36.8397 122.218 36.9208 122.672 37.1754L125.735 38.9779C126.024 39.1445 126.351 39.2315 126.685 39.2301C127.018 39.2322 127.346 39.1452 127.635 38.9782L136.765 33.7245C137.356 33.381 137.715 32.7411 137.715 32.0576V21.5309C137.715 20.8471 137.356 20.2053 136.765 19.864L127.635 14.5912C127.348 14.4277 127.02 14.3584 126.685 14.3584L126.684 14.3582Z" fill="#2F2F2F" fill-opacity="0.5"/>
<path d="M129.127 21.8796C126.527 21.8796 124.979 22.9862 124.979 24.8264C124.979 26.8223 126.516 27.3709 129.011 27.6177C131.997 27.91 132.229 28.3484 132.229 28.936C132.229 29.9553 131.417 30.3899 129.496 30.3899C127.083 30.3899 126.553 29.7874 126.375 28.5871C126.354 28.4583 126.255 28.3543 126.123 28.3543H124.94C124.795 28.3543 124.669 28.4799 124.669 28.6259C124.669 30.1625 125.505 31.9795 129.496 31.9795C132.385 31.9795 134.052 30.8455 134.052 28.8584C134.052 26.8889 132.706 26.36 129.903 25.9895C127.071 25.6147 126.801 25.4313 126.801 24.7682C126.801 24.2207 127.03 23.4884 129.127 23.4884C131.001 23.4884 131.694 23.8926 131.977 25.1559C132.002 25.2745 132.107 25.369 132.229 25.369H133.412C133.485 25.369 133.555 25.3243 133.606 25.272C133.655 25.2163 133.69 25.1535 133.683 25.0783C133.5 22.9029 132.049 21.8796 129.127 21.8796Z" fill="#2F2F2F" fill-opacity="0.5"/>
<path d="M73.0059 0.555789C72.9038 0.555857 72.8036 0.582507 72.7149 0.633116C72.6269 0.68465 72.5537 0.758239 72.5027 0.846634C72.4518 0.935029 72.4247 1.03518 72.4242 1.13722V15.9672C72.4242 16.1127 72.3566 16.2431 72.2305 16.3161C72.1687 16.3521 72.0984 16.3711 72.0269 16.3711C71.9554 16.3711 71.8852 16.3521 71.8234 16.3161L69.4001 14.9205C69.2234 14.8182 69.0228 14.7643 68.8186 14.7643C68.6144 14.7643 68.4137 14.8182 68.237 14.9205L58.5636 20.5033C58.2021 20.7121 57.9822 21.1133 57.9822 21.5309V32.6969C57.9822 33.114 58.2023 33.4961 58.5636 33.7049L68.237 39.288C68.4137 39.3905 68.6143 39.4445 68.8186 39.4445C69.0228 39.4445 69.2235 39.3905 69.4001 39.288L79.0735 33.7049C79.2506 33.6029 79.3976 33.4561 79.4998 33.2791C79.6019 33.1021 79.6555 32.9013 79.6552 32.6969V4.8594C79.6549 4.65027 79.5992 4.44495 79.4936 4.26442C79.388 4.08388 79.2365 3.93459 79.0543 3.83179L73.2966 0.613717C73.2064 0.563333 73.1061 0.554442 73.0059 0.555789ZM10.7783 14.494C10.594 14.5012 10.4205 14.5336 10.2551 14.6295L0.581435 20.2126C0.404234 20.3144 0.257114 20.4613 0.154999 20.6383C0.0528854 20.8153 -0.000587913 21.0162 4.87546e-06 21.2206L0.0194039 36.206C0.0194039 36.4143 0.126907 36.608 0.310119 36.7098C0.397956 36.7626 0.498497 36.7905 0.600969 36.7905C0.703441 36.7905 0.803983 36.7626 0.891819 36.7098L6.62988 33.4144C6.99334 33.1983 7.23071 32.8228 7.23071 32.4062V25.408C7.23071 24.9904 7.45029 24.6073 7.81241 24.3998L10.2548 22.9848C10.4314 22.8821 10.6322 22.8285 10.8365 22.8296C11.0359 22.8296 11.2406 22.8794 11.4179 22.9848L13.8606 24.3998C14.0379 24.5015 14.1852 24.6484 14.2874 24.8255C14.3896 25.0026 14.443 25.2036 14.4423 25.408V32.406C14.4423 32.8225 14.6821 33.2008 15.0431 33.4142L20.7812 36.7098C20.869 36.7626 20.9695 36.7905 21.072 36.7905C21.1745 36.7905 21.275 36.7626 21.3629 36.7098C21.4513 36.6587 21.5247 36.5852 21.5758 36.4967C21.6268 36.4082 21.6538 36.3079 21.6538 36.2057L21.6727 21.2206C21.6739 21.0161 21.6206 20.815 21.5184 20.6379C21.4163 20.4608 21.2689 20.314 21.0913 20.2126L11.4179 14.6295C11.2544 14.5336 11.0803 14.5015 10.8947 14.494H10.7783ZM97.703 14.6295C97.5009 14.6295 97.3029 14.6807 97.1215 14.7847L87.4482 20.3678C87.271 20.4697 87.124 20.6166 87.0218 20.7936C86.9197 20.9706 86.8661 21.1714 86.8665 21.3757V32.5417C86.8665 32.9618 87.103 33.3422 87.4673 33.55L97.0633 39.0167C97.4176 39.2188 97.8503 39.2341 98.2071 39.0355L104.023 35.7983C104.207 35.696 104.332 35.5047 104.333 35.2945C104.334 35.1922 104.307 35.0914 104.256 35.0028C104.205 34.9141 104.131 34.8408 104.042 34.7904L94.3106 29.2073C94.1284 29.1033 94.0005 28.8928 94.0005 28.6838V25.1946C94.0005 24.9858 94.1298 24.7945 94.3106 24.6905L97.3347 22.9457C97.423 22.8946 97.5234 22.8676 97.6255 22.8676C97.7276 22.8676 97.828 22.8946 97.9164 22.9457L100.94 24.6905C101.029 24.7414 101.102 24.8148 101.153 24.9033C101.205 24.9918 101.231 25.0922 101.231 25.1944V27.9471C101.231 28.0493 101.258 28.1497 101.309 28.2382C101.36 28.3267 101.433 28.4001 101.522 28.451C101.703 28.5558 101.923 28.5561 102.103 28.451L107.9 25.0785C108.077 24.9762 108.223 24.8292 108.326 24.6523C108.428 24.4753 108.481 24.2746 108.482 24.0703V21.376C108.482 20.9597 108.261 20.5769 107.9 20.3678L98.2847 14.7847C98.1079 14.6824 97.9072 14.629 97.703 14.6297V14.6295ZM68.7796 22.9654C68.8303 22.9654 68.8896 22.9778 68.9348 23.0039L72.2499 24.9231C72.3399 24.9751 72.4051 25.0713 72.4051 25.175V29.0133C72.4051 29.1176 72.3404 29.2135 72.2499 29.2655L68.9348 31.1846C68.8905 31.2099 68.8404 31.2232 68.7895 31.2232C68.7385 31.2232 68.6884 31.2099 68.6441 31.1846L65.3293 29.2655C65.239 29.2132 65.1741 29.1176 65.1741 29.0133V25.175C65.1741 25.071 65.2393 24.9756 65.3293 24.9231L68.6441 23.0042C68.6849 22.9788 68.7319 22.9655 68.7799 22.9657V22.9654H68.7796Z" fill="#2F2F2F" fill-opacity="0.5"/>
<path d="M39.837 14.5709C39.6354 14.5709 39.4361 14.6221 39.2555 14.7261L29.5822 20.2899C29.2203 20.4981 29.0005 20.9001 29.0005 21.3172V32.4832C29.0005 32.9008 29.2206 33.2823 29.5822 33.4914L39.2555 39.0743C39.4322 39.1769 39.6328 39.2309 39.8371 39.2309C40.0414 39.2309 40.242 39.1769 40.4187 39.0743L50.092 33.4914C50.2691 33.3894 50.4161 33.2425 50.5182 33.0654C50.6203 32.8884 50.6739 32.6876 50.6735 32.4832V21.3172C50.6735 20.8996 50.4536 20.4981 50.092 20.2899L40.4187 14.7261C40.2419 14.624 40.0412 14.5705 39.837 14.5709ZM97.6834 24.5353C97.6449 24.5353 97.602 24.5353 97.5673 24.5547L95.7063 25.6402C95.6716 25.6595 95.6426 25.6876 95.6221 25.7216C95.6017 25.7557 95.5906 25.7945 95.5899 25.8342V27.9665C95.5899 28.0468 95.6363 28.1203 95.7063 28.1605L97.5673 29.2266C97.637 29.267 97.7114 29.267 97.7804 29.2266L99.6413 28.1602C99.6759 28.1408 99.7048 28.1127 99.7252 28.0788C99.7456 28.0448 99.7568 28.0061 99.7577 27.9665V25.8339C99.7568 25.7943 99.7456 25.7556 99.7252 25.7216C99.7048 25.6876 99.6759 25.6596 99.6413 25.6402L97.7804 24.5544C97.7459 24.5342 97.7222 24.5355 97.6834 24.5355V24.5353Z" fill="#2F2F2F" fill-opacity="0.5"/>
</svg>
